!!!COM:	Messiaen
!!!OTL:	785_Mes-26/19/deux dernieres lignes
**kern	**kern	**kern	**dynam
*part2	*part1	*part1	*part1
*staff3	*staff2	*staff1	*S
*I"Pedals	*I"Organ	*	*
*I'Ped.	*I'Org.	*	*
*clefF4	*clefG2	*clefG2	*
*k[]	*k[]	*k[]	*
*C:	*C:	*C:	*
*M2/4	*M2/4	*M2/4	*
=1	=1	=1	=1
2r	[4gg#X	4r	.
.	8gg#L]	8r	.
.	16.gg#L	16r	.
.	.	[16an	f
.	[32eee-XJJk	.	.
=2	=2	=2	=2
2r	4eee-_	4a]	.
.	16eee-KL]	[4fn	.
.	[8.ff#XJ	.	.
=3	=3	=3	=3
2r	4ff#_	16fKL]	.
.	.	8.B-XJ	.
.	8ff#L]	[4gg	.
.	32ff#XLL	.	.
.	[32bnJ	.	.
.	16bJJ_	.	.
=4	=4	=4	=4
2r	2b]	16ggKL]	.
.	.	[8.cnJ	.
.	.	4c]	.
*	*clefF4	*	*
=5	=5	=5	=5
2r	[2DDn	(32a-XKLL	.
.	.	16aan)	.
.	.	(32eenJJk	.
.	.	16d#XLL)	.
.	.	(32f#XL	.
.	.	[32cc#XJJJ	.
.	.	32cc#LLL])	.
.	.	(32ffnJ	.
.	.	16cccnJ)	.
.	.	(32ee-XKL	.
.	.	16bn)	.
.	.	(32B-XJJk	.
=6	=6	=6	=6
!!linebreak:original
2r	16.DDnLL]	16a-XLL)	.
.	.	(32dd-XL	.
.	[32F#XJk	[32ggnJJJ	.
.	8F#J_	32ggLLL])	.
.	.	(32eeenJ	.
.	.	16aanJJ)	.
.	4F#_	8fnL	.
.	.	8B-XJ	.
*	*	*clefF4	*
=7	=7	=7	=7
2r	16F#KL]	[16GGnLL	.
.	[8.AA-XJ	32GGL]	.
.	.	[32D-XJ	.
.	.	16D-]	.
.	.	[16cnJJ	.
.	4AA-_	8.cL]	.
.	.	32cLL	.
*	*	*clefG2	*
.	.	[32eenJJJ	.
=8	=8	=8	=8
8r	8AA-L_	4ee]	.
[8F#X^^	32AA-KL]	.	.
.	[16.e-XJJ	.	.
4F#]	8.e-L]	[8dddnL	.
.	.	32dddLL]	.
.	.	[32bbnJ	.
*	*clefG2	*	*
.	[16b-XJk	16bbJJ_	.
=9	=9	=9	=9
16Cn^^LL	8b-L_	8.bbL]	.
16F#X^^J	.	.	.
8CJ	16.b-L]	.	.
.	.	[16ddnJk	.
.	[32ggnJJk	.	.
8E-X^^L	4gg]	4dd]	.
8B-X^^J	.	.	.
==	==	==	==
*-	*-	*-	*-
!!!system-decoration: {(s1,s2)}s3
!!!ONB: Converted from MusicXML on 2019/06/05
